!!!OTL: 56d. Die Kindsmoerderin.
!!!ODT: 1872
!!!ARE: Europa, Mitteleuropa, Deutschland, Dillenburg, Eibach
!!!SCT: E0056C
!!!TXL: @@DE
!!!YEM: Copyright 1995, estate of Helmut Schaffrath.
**kern	**text
*ICvox	*
*M3/4	*
*met(3)	*
*k[f#]	*
*G:	*
!LO:TX:a:t=Langſam.	!
!LO:TX:a:t=Aus Eibach bei Dillenburg. 1872	!
{4g	Ach
=1	=1
4g	Jo-
4d	-ſeph,
8b	lie-
8cc	-ber
=2	=2
4b	Jo-
4g}	-ſeph,
{8bL	was
8ccJ	.
=3	=3
4dd	haſt
4cc	du
4b	ge-
=4	=4
2a}	-macht,
{8aL	daß
8bJ	.
=5	=5
4cc	du
8ccL	die
8eeJ	.
8dd	ſchö-
8cc	-ne
=6	=6
8bL	Ber-
8ddJ	.
4g}	-tha
{4g	ins
=7	=7
8bqq	.
4a	Un-
4a	-glück
4a	ge-
=8	=8
2g}	-bracht.
{8aL	daß
8bJ	.
=9	=9
4cc	du
8ccL	die
8eeJ	.
8dd	ſchö-
8cc	-ne
=10	=10
8bL	Ber-
8ddJ	.
4g}	-tha
{4g	ins
=11	=11
8bqq	.
4a	Un-
4a	-glück
4a	ge-
=12	=12
2g}	-bracht.
==	==
!!!AGN: erzaehlendes Volks - Lied, Sage, Kinds - Mord, Ballade ?
!!!ONB: ESAC (Essen Associative Code) Database: ERK1
!!!AMT: simple triple
!!!AIN: vox
!!!EED: Helmut Schaffrath
!!!EEV: 1.0
!!!GTL: Sagen von Mordthaten, unschuldig Gesangeg und Hinrichtungen
!!!URL-scan: https://rosdok.uni-rostock.de/mcrviewer/recordIdentifier/rosdok_ppn745146120/iview2/phys_0251.iview2?x=-4.404412318551749&y=1501.7990812589414&scale=0.6456904138606623&rotation=0&layout=singlePageLayout&logicalDiv=log_0009
!!!ENC: Anna Maria Matuszewska
!!!EEV: 2024/11/25
*-	*-
